build/img/svg/alien.svg

<svg width="20" height="20" viewBox="0 0 20 20" fill="none" xmlns="http://www.w3.org/2000/svg">
<path d="M11.9453 0C11.304 0 10.7021 0.325343 10.3161 0.794521C9.93009 1.2637 9.71732 1.83562 9.56231 2.43836C9.31611 3.40753 9.24012 4.48288 9.22188 5.45205C7.41944 5.57192 5.78722 6.10616 4.43159 6.93151C3.88143 6.46918 3.21882 6.21233 2.58356 6.21918C1.86015 6.22603 1.17322 6.53767 0.662576 7.17808C-0.313112 8.40068 -0.200649 10.4007 0.930054 11.589C0.860145 11.9555 0.808473 12.3322 0.808473 12.7123C0.808473 16.7397 4.92399 20 10 20C15.076 20 19.1915 16.7363 19.1915 12.7123C19.1915 12.3322 19.1399 11.9555 19.0699 11.589C20.2006 10.4007 20.3131 8.40068 19.3374 7.17808C18.8268 6.53767 18.1399 6.22603 17.4164 6.21918C16.7812 6.21233 16.1186 6.46918 15.5684 6.93151C14.2189 6.10959 12.5958 5.57534 10.8024 5.45205C10.8268 4.55822 10.8906 3.63014 11.0699 2.93151C11.1824 2.49315 11.3161 2.17466 11.459 2C11.6018 1.82534 11.7052 1.75342 11.9453 1.75342C12.4651 1.75342 12.5319 1.92123 12.845 2.32877C13.0031 2.53425 13.1854 2.7911 13.4772 3.0411C13.769 3.2911 14.2006 3.50685 14.6687 3.50685V1.75342C14.538 1.75342 14.5137 1.75 14.4256 1.67123C14.3374 1.59247 14.2158 1.41096 14.0365 1.17808C13.6778 0.708904 12.9818 0 11.9453 0ZM17.0031 0.164384C15.7933 0.164384 14.8146 1.26712 14.8146 2.63014C14.8146 3.99315 15.7933 5.09589 17.0031 5.09589C18.2128 5.09589 19.1915 3.99315 19.1915 2.63014C19.1915 1.26712 18.2128 0.164384 17.0031 0.164384ZM17.0031 1.0411C17.7812 1.0411 18.4134 1.75342 18.4134 2.63014C18.4134 3.50685 17.7812 4.21918 17.0031 4.21918C16.225 4.21918 15.5927 3.50685 15.5927 2.63014C15.5927 1.75342 16.225 1.0411 17.0031 1.0411ZM10 6.82192C14.307 6.82192 17.9514 9.52397 17.9514 12.7123C17.9514 15.9041 14.307 18.6027 10 18.6027C5.69299 18.6027 2.0486 15.9041 2.0486 12.7123C2.0486 9.52397 5.69299 6.82192 10 6.82192ZM2.60787 7.61644C2.82368 7.61986 3.0486 7.67466 3.26441 7.78082C2.48325 8.44863 1.86319 9.21575 1.44069 10.0822C1.1489 9.40411 1.22793 8.55822 1.58659 8.10959C1.84799 7.78082 2.20969 7.61301 2.60787 7.61644ZM17.3921 7.61644C17.7903 7.61301 18.152 7.78082 18.4134 8.10959C18.7721 8.55822 18.8511 9.40411 18.5593 10.0822C18.1368 9.21575 17.5167 8.44863 16.7356 7.78082C16.9514 7.67466 17.1763 7.61986 17.3921 7.61644ZM6.88753 9.80822C6.10941 9.80822 5.47719 10.5205 5.47719 11.3973C5.47719 12.274 6.10941 12.9863 6.88753 12.9863C7.66564 12.9863 8.29786 12.274 8.29786 11.3973C8.29786 10.5205 7.66564 9.80822 6.88753 9.80822ZM13.1125 9.80822C12.3344 9.80822 11.7021 10.5205 11.7021 11.3973C11.7021 12.274 12.3344 12.9863 13.1125 12.9863C13.8906 12.9863 14.5228 12.274 14.5228 11.3973C14.5228 10.5205 13.8906 9.80822 13.1125 9.80822ZM6.13372 15.2055C6.62917 16.3596 8.16109 17.4795 10 17.4795C11.8389 17.4795 13.3952 16.3596 13.8906 15.2055C12.9909 15.8596 11.5714 16.3014 10 16.3014C8.42857 16.3014 7.03342 15.8596 6.13372 15.2055Z" fill="#F9FBFD"/>
</svg>

<svg width="20" height="20" viewBox="0 0 20 20" fill="none" xmlns="http://www.w3.org/2000/svg"><path d="M11.945 0c-.641 0-1.243.325-1.629.795-.386.469-.599 1.04-.754 1.643-.246.97-.322 2.045-.34 3.014-1.803.12-3.435.654-4.79 1.48-.55-.463-1.213-.72-1.848-.713-.724.007-1.41.319-1.921.96C-.313 8.4-.201 10.4.93 11.588a6.01 6.01 0 0 0-.122 1.123C.808 16.74 4.924 20 10 20c5.076 0 9.192-3.264 9.192-7.288 0-.38-.052-.756-.122-1.123 1.13-1.188 1.243-3.188.267-4.41-.51-.641-1.197-.953-1.92-.96-.636-.007-1.298.25-1.849.713-1.35-.822-2.972-1.357-4.766-1.48.025-.894.089-1.822.268-2.52.112-.439.246-.757.389-.932.143-.175.246-.247.486-.247.52 0 .587.168.9.576.158.205.34.462.632.712.292.25.724.466 1.192.466V1.753c-.131 0-.155-.003-.243-.082-.089-.079-.21-.26-.39-.493C13.678.708 12.982 0 11.947 0Zm5.058.164c-1.21 0-2.188 1.103-2.188 2.466 0 1.363.978 2.466 2.188 2.466 1.21 0 2.189-1.103 2.189-2.466 0-1.363-.98-2.466-2.189-2.466Zm0 .877c.778 0 1.41.712 1.41 1.59 0 .876-.632 1.588-1.41 1.588-.778 0-1.41-.712-1.41-1.589s.632-1.589 1.41-1.589ZM10 6.821c4.307 0 7.951 2.703 7.951 5.891 0 3.192-3.644 5.89-7.951 5.89-4.307 0-7.951-2.698-7.951-5.89 0-3.188 3.644-5.89 7.951-5.89Zm-7.392.795c.216.004.44.059.656.165-.78.668-1.4 1.435-1.823 2.301-.292-.678-.213-1.524.146-1.972a1.263 1.263 0 0 1 1.02-.494Zm14.784 0c.398-.003.76.165 1.021.494.36.448.438 1.294.146 1.972-.422-.866-1.042-1.633-1.823-2.301a1.55 1.55 0 0 1 .656-.165ZM6.888 9.808c-.779 0-1.41.713-1.41 1.59 0 .876.631 1.588 1.41 1.588.778 0 1.41-.712 1.41-1.589s-.632-1.589-1.41-1.589Zm6.225 0c-.779 0-1.41.713-1.41 1.59 0 .876.631 1.588 1.41 1.588.778 0 1.41-.712 1.41-1.589s-.632-1.589-1.41-1.589Zm-6.98 5.398C6.63 16.36 8.162 17.48 10 17.48s3.395-1.12 3.89-2.274c-.9.654-2.319 1.095-3.89 1.095-1.571 0-2.967-.441-3.866-1.095Z" fill="#F9FBFD"/></svg>
